X:1
T:Title
%%score 1 { 2 | 3 }
L:1/8
Q:1/4=115
M:4/4
K:C
V:1 treble nm="Grand Piano, Soprano"
V:2 bass nm="Choir Pad, Bass"
V:3 bass 
V:1
 [CE]4 [CE]2 [CE]2 | [CE]4 z2 [CE]2 | [B,D]4 [CE]4 | D2 [^CE]2 [DF]2 [B,F]2 | [CE]6 [EG]2 | %5
w: By~John~Harrison~Tenney~(1840\-1918) * *|||||
 [EG]4 [E^G]4 | [EA]3 [EA] [EB]2 [EB]2 | [Ec]8 | [Ac]4 [GB]2 [FA]2 | [EG]6 z2 | %10
w: |||||
 [DG]4 [DF]2 [B,D]2 | [CE]8- | [CE]2 z2 z4 |] %13
w: |||
V:2
 G,4 G,2 G,2 | G,4 z2 G,2 | G,4 G,4 | A,2 A,2 A,2 A,2 | G,6[K:treble] C2 | C4 D4 | C3 A, ^G,2 G,2 | %7
 A,8 | C4 C2 C2 | C6 z2 | B,4 B,2 G,2 | G,8- | G,2 z2 z4 |] %13
V:3
 C,4 C,2 C,2 | C,4 z2 C,2 | G,,4 C,4 | F,2 E,2 D,2 G,,2 | C,6 C,2 | C,4 B,,4 | A,,3 C, E,2 E,2 | %7
 z8 | F,4 F,2 F,2 | C,6 z2 | G,4 G,2 G,,2 | C,8- | C,2 z2 z4 |] %13

